X:1
L:1/16
M:3/8
K:A
 AB | c2c2c2 | cBcdec | d2d2d2 | B4 BA | G2G2G2 | G2GABG | A2A2A2 | A4 :: e2 | aeceae | geBege | 
 aeceae | geBege | agfedc | BAGFED | CEAcBG | A4 :| e2 | e4 c2 | c2>d2e2 | e2d2B2 | B4 d2 | 
 c2>d2e2 | e2d2c2 | c2B2B2 | B4 e2 | e4 c2 | c2>d2e2 | e2d2B2 | B4 d2 | c2>d2c2 | B2A2B2 | A2A2A2 | 
 A4 |][K:G] dc | BdcB AcBA | GBAG{G} F2ED | EFGE FGAF | GABc B2Ac | BdcB AcBA | GBAG{G} F2ED | 
 EFGE FGAF | GBAF G4 ::!p! B2B2B2A2 | c2c2c2B2 | e2e2d2g2 | fgaf g4 | B2B2B2A2 | c2c2c2B2 | 
 e2e2d2g2 | fgaf g4 ::!f! b2B2B2b2 | a2g2{g} f4 | g2G2G2g2 | f2e2{e} ^d2 | e2E2E2e2 | d2c2{c} B4 | 
 cBAG FGAF | G6 :|
